svgs/thin/calendar-image.svg

<svg xmlns="http://www.w3.org/2000/svg" viewBox="0 0 448 512"><!--! Font Awesome Pro 6.4.0 by @fontawesome - https://fontawesome.com License - https://fontawesome.com/license (Commercial License) Copyright 2023 Fonticons, Inc. --><path d="M120 0c4.4 0 8 3.6 8 8V64H320V8c0-4.4 3.6-8 8-8s8 3.6 8 8V64h48c35.3 0 64 28.7 64 64v48 16V448c0 35.3-28.7 64-64 64H64c-35.3 0-64-28.7-64-64V192 176 128C0 92.7 28.7 64 64 64h48V8c0-4.4 3.6-8 8-8zM432 192H16V448c0 26.5 21.5 48 48 48H384c26.5 0 48-21.5 48-48V192zM112 120V80H64c-26.5 0-48 21.5-48 48v48H432V128c0-26.5-21.5-48-48-48H336v40c0 4.4-3.6 8-8 8s-8-3.6-8-8V80H128v40c0 4.4-3.6 8-8 8s-8-3.6-8-8zM262.8 286.9c-3.2-4.5-9.9-4.4-13 .2l-59.2 85.5c-1.4 2-3.5 3.2-5.9 3.4s-4.7-.6-6.4-2.3L151.7 347c-3.5-3.5-9.3-3-12.2 1l-51 71.3c-3.8 5.3 0 12.6 6.5 12.6H352.6c6.5 0 10.3-7.4 6.5-12.7L262.8 286.9zm-26.2-9c9.4-13.6 29.4-13.8 39.1-.5L372 409.9c11.5 15.9 .2 38.1-19.4 38.1H95.1c-19.5 0-30.9-22.1-19.5-37.9l51-71.3c8.6-12.1 26-13.5 36.5-3l19.9 19.9L236.6 278zM96 272a16 16 0 1 0 32 0 16 16 0 1 0 -32 0zm16 32a32 32 0 1 1 0-64 32 32 0 1 1 0 64z"/></svg>

<svg xmlns="http://www.w3.org/2000/svg" viewBox="0 0 448 512"><!--! Font Awesome Pro 6.3.0 by @fontawesome - https://fontawesome.com License - https://fontawesome.com/license (Commercial License) Copyright 2023 Fonticons, Inc. --><path d="M236.6 277.1C245.1 264.4 266 264.2 275.7 277.5L371.1 409.9C383.5 425.7 372.2 448 352.6 448H95.09C75.57 448 64.22 425.9 75.56 410.1L126.5 338.7C135.1 326.7 152.5 325.2 163 335.7L182.9 355.6L236.6 277.1zM262.8 286.9C259.5 282.5 252.9 282.6 249.7 287.1L190.6 372.6C189.2 374.5 187.1 375.8 184.7 375.1C182.4 376.2 180 375.3 178.3 373.7L151.7 347C148.2 343.5 142.4 343.1 139.5 348L88.58 419.4C84.8 424.6 88.58 432 95.09 432H352.6C359.1 432 362.9 424.6 359 419.3L262.8 286.9zM144 272C144 289.7 129.7 304 112 304C94.33 304 80 289.7 80 272C80 254.3 94.33 240 112 240C129.7 240 144 254.3 144 272zM112 288C120.8 288 128 280.8 128 272C128 263.2 120.8 256 112 256C103.2 256 96 263.2 96 272C96 280.8 103.2 288 112 288zM120 0C124.4 0 128 3.582 128 8V64H320V8C320 3.582 323.6 0 328 0C332.4 0 336 3.582 336 8V64H384C419.3 64 448 92.65 448 128V448C448 483.3 419.3 512 384 512H64C28.65 512 0 483.3 0 448V128C0 92.65 28.65 64 64 64H112V8C112 3.582 115.6 0 120 0zM432 192H16V448C16 474.5 37.49 496 64 496H384C410.5 496 432 474.5 432 448V192zM112 120V80H64C37.49 80 16 101.5 16 128V176H432V128C432 101.5 410.5 80 384 80H336V120C336 124.4 332.4 128 328 128C323.6 128 320 124.4 320 120V80H128V120C128 124.4 124.4 128 120 128C115.6 128 112 124.4 112 120z"/></svg>
